X: 1207
T: 1910
B: australian traditional tunes wiki
M:6/8
L:1/8
R: Jig
Q: 3/8=100
K:G
V:1 
|:B|"G"d2d def|g3-g2B|"C"c2c cde|"G"d3-d2D|
"Em"B2B BcB|"D"A2A ABd|"C"e2e "D"dBA|"G"G3-G2:|
|:D|"G"GBd "C"e2B|"G"d3-d2D|GAB "C"G2F|"G"D3-D2B|
"C"c2c cde|"G"d2B GAG|"C"Ace "D"dBA|"G"G3-G2:||
% abcbook-tune_id 6342d53a832c58fb3e0b8dc3


% abcbook-boost 0
% abcbook-tablature 
% abcbook-transpose 
% abcbook-lastupdated 1665324354244
% abcbook-soundfonts 
% abcbook-repeats 1
% NFF Book 2009

